X:1424
T:Sleepy Maggie
M:C|
L:1/8
N:"collected by J. O'Neill"
B:O'Neill's 1424
Z:"Transcribed by Bob Safranek, rjs@gsp.org"
K:Edor
f2 de fBde|Tf2 df eAce|gf2 de fBde|fgaf  eAce|
f2 de fBde|Tf2 df eAce|gf2 de fBde|fgaf  eAce||
fBdB    fBde|fBdB     eAce|fBdB       eBde|fgaf eAce|
fBdB    fBde|fBdB     eAce|dcBc       defg|abaf  eAce||
fBbB    fBde|fBbB     aAce|fBbB       aBgB|fBgB aAde :|
